assets/images/stats/ratings.svg

<svg viewBox="0 0 45 43.8" xmlns="http://www.w3.org/2000/svg"><g fill-rule="evenodd" transform="translate(-.1 .8)"><path d="m45.1 18.8-10.7 9.8 2 14.4-12.6-7.2-13 6.3 2.9-14.2-10-10.4 14.4-1.6 6.8-12.9 6 13.2z" fill="#2dbf91"/><path d="m7.9 41.1c-.1 0-.1-.1-.2-.1a1.24 1.24 0 0 1 -.5-1.5l2.8-13.4-9.5-9.9a1.4 1.4 0 0 1 -.3-1.5 1.72 1.72 0 0 1 1.2-1l13.6-1.6 6.4-12.1a1.6 1.6 0 0 1 1.4-.8 1.42 1.42 0 0 1 1.3.9l5.7 12.5 13.5 2.4a1.5 1.5 0 0 1 1.2 1.1 1.44 1.44 0 0 1 -.4 1.5l-10.1 9.3 1.9 13.6a1.45 1.45 0 0 1 -.6 1.4 1.81 1.81 0 0 1 -1.6.1l-11.9-6.8-12.3 6a2.1 2.1 0 0 1 -1.6-.1zm-3.2-24.8 7.9 8.3a1.68 1.68 0 0 1 .4 1.3l-2.3 11.2 10.3-5a1.7 1.7 0 0 1 1.4 0l10 5.7-1.6-11.4a1.3 1.3 0 0 1 .5-1.3l8.5-7.7-11.3-2a1.44 1.44 0 0 1 -1.1-.9l-4.8-10.4-5.4 10.1a1.74 1.74 0 0 1 -1.2.8z"/></g></svg>

<svg id="Layer_1" data-name="Layer 1" xmlns="http://www.w3.org/2000/svg" viewBox="0 0 45 43.8"><title>ratings</title><g id="group-13svg"><path id="path-1" d="M45.1,18.8,34.4,28.6l2,14.4L23.8,35.8l-13,6.3,2.9-14.2L3.7,17.5l14.4-1.6L24.9,3l6,13.2Z" transform="translate(-0.1 0.8)" style="fill:#2dbf91;fill-rule:evenodd"/><path id="path-2" d="M7.9,41.1c-.1,0-.1-.1-.2-.1a1.24,1.24,0,0,1-.5-1.5L10,26.1.5,16.2a1.4,1.4,0,0,1-.3-1.5,1.72,1.72,0,0,1,1.2-1L15,12.1,21.4,0a1.6,1.6,0,0,1,1.4-.8,1.42,1.42,0,0,1,1.3.9l5.7,12.5L43.3,15a1.5,1.5,0,0,1,1.2,1.1,1.44,1.44,0,0,1-.4,1.5L34,26.9l1.9,13.6a1.45,1.45,0,0,1-.6,1.4,1.81,1.81,0,0,1-1.6.1L21.8,35.2l-12.3,6A2.1,2.1,0,0,1,7.9,41.1ZM4.7,16.3l7.9,8.3a1.68,1.68,0,0,1,.4,1.3L10.7,37.1l10.3-5a1.7,1.7,0,0,1,1.4,0l10,5.7L30.8,26.4a1.3,1.3,0,0,1,.5-1.3l8.5-7.7-11.3-2a1.44,1.44,0,0,1-1.1-.9L22.6,4.1,17.2,14.2A1.74,1.74,0,0,1,16,15Z" transform="translate(-0.1 0.8)" style="fill-rule:evenodd"/></g></svg>
